X:1
T:St. Olave (Barnby), 66.66.66
T:St. Olave (Barnby), 66.66.66
T:Joseph Barnby (1838-1896)
T:Public Domain Courtesy of the Cyber Hymnal™
C:Joseph Barnby (1838-1896)
Z:Public Domain
Z:Courtesy of the Cyber Hymnal™
%%score ( 1 2 ) ( 3 4 )
L:1/8
Q:1/4=110
M:4/4
K:F
V:1 treble 
V:2 treble 
V:3 bass 
V:4 bass 
V:1
 [CF]2 | [B,F]2 [B,E]2 [B,D]2 [B,C]2 | [A,A]6 [CA]2 | [DA]2 [DG]2 [CF]2 [CE]2 | [CF]6 F2 | %5
 [FB]2 [FB]2 [EA]2 [E^G]2 | [EA]2 [E=B]2 [Ec]2 [^Fd]2 | [Ge]4 [F=B]4 | [Ec]4 [Ec]4 x8 | %9
 [Ff]2 [Fc]2 [_EB]2 [EA]2 | !fermata![Dd]2 D2 [DE]2 [DF]2 | [CF]4 [CE]4 | [CF]6 |] %13
V:2
 x2 | x8 | x8 | x8 | x6 F2 | x8 | x8 | x8 | x16 | x8 | x2 D2 x4 | x8 | x6 |] %13
V:3
 [F,A,]2 | [C,G,]2 [C,G,]2 [D,F,]2 [E,G,]2 | F,6 F,2 | [B,,F,]2 [B,,B,]2 [C,A,]2 [C,G,]2 | %4
 [F,A,]6 [F,A,]2 | [D,D]2 [D,D]2 [E,C]2 [E,=B,]2 | [A,C]2 [A,D]2 [A,E]2 [A,C]2 | [G,C]4 [G,D]4 | %8
 C4 [B,C]4 [A,C]2 [A,C]2 [F,C]2 F,2 | !fermata![B,,F,]2 [B,,F,]2 [=B,,G,]2 [B,,^G,]2 | %10
 [C,A,]4 [C,B,]4 | [F,A,]6 x2 | x6 |] %13
V:4
 x2 | x8 | F,6 F,2 | x8 | x8 | x8 | x8 | x8 | C4 x6 F,2 x4 | x8 | x8 | x8 | x6 |] %13

